images/trash-icon.svg

<svg width="18" height="20" viewBox="0 0 18 20" fill="none" xmlns="http://www.w3.org/2000/svg">
<path d="M2.45763 18.1422C2.51857 18.8126 3.06711 19.3002 3.73754 19.3002H14.2612C14.9317 19.3002 15.4802 18.7923 15.5411 18.1422L16.7195 5.79007H1.2793L2.45763 18.1422Z" fill="white"/>
<path d="M16.7201 1.93002H11.5801V1.27991C11.5801 0.568849 11.0113 0 10.3002 0H7.72009C7.00903 0 6.44018 0.568849 6.44018 1.27991V1.93002H1.27991C0.568849 1.93002 0 2.49887 0 3.20993C0 3.92099 0.568849 4.48984 1.27991 4.48984H16.7201C17.4312 4.48984 18 3.92099 18 3.20993C18 2.49887 17.4312 1.93002 16.7201 1.93002Z" fill="white"/>
</svg>

<svg width="18" height="20" fill="none" xmlns="http://www.w3.org/2000/svg"><path d="M2.458 18.142c.06.67.61 1.158 1.28 1.158H14.26c.67 0 1.22-.508 1.28-1.158L16.72 5.79H1.28l1.179 12.352zM16.72 1.93h-5.14v-.65C11.58.569 11.011 0 10.3 0H7.72c-.71 0-1.28.569-1.28 1.28v.65H1.28C.569 1.93 0 2.499 0 3.21c0 .711.569 1.28 1.28 1.28h15.44c.711 0 1.28-.569 1.28-1.28 0-.711-.569-1.28-1.28-1.28z" fill="#fff"/></svg>
